X:1798
T:"The Garden Of Dasies"  (2nd setting)  (longdance)    1798
C:After Mr. Tuohy
B:O'Neill's Music Of Ireland (The 1850) Lyon & Healy, Chicago, 1903 edition
Z:FROM O'NEILL'S TO NOTEWORTHY, FROM NOTEWORTHY TO ABC, MIDI AND .TXT BY VINCE
BRENNAN July 2003 (HTTP://WWW.SOSYOURMOM.COM)
I:abc2nwc
M:C|
L:1/8
K:D
(fg)|a2(af) gbag|fefa gfef|dcde fdec|dedc AGFG|
ABcA dcAG|FEFG ABcA|dcdf edce|[1d2ddde:|[2d2dd d2
|:A2|dcde fefg|a2(af) defg|a2(af) ggag|f2(fe) defg|
a2(af) gbag|fefa gfef|dcde fdec|dedc A2(fg)|
a2(af) gbag|fefa gfef|dcde fdec|dedc AGFG|
ABcA dcAG|FEFG ABcA|dcdf edce|[1d2dddc:|[2d2dd|]
